lib/flags/tc-turks-and-caicos-islands.svg

<svg xmlns="http://www.w3.org/2000/svg" fill="none" aria-hidden="true" viewBox="0 0 42 30"><g id="Country=TC - Turks and Caicos Islands, Size=sm (36x24)" filter="url(#filter0_dd_91_24830)"><g clip-path="url(#clip0_91_24830)"><g id="flag"><mask id="mask0_91_24830" width="36" height="24" x="3" y="2" maskUnits="userSpaceOnUse" style="mask-type:alpha"><rect id="mask" width="36" height="24" x="3" y="2" fill="white"/></mask><g mask="url(#mask0_91_24830)"><g id="contents"><path id="background" fill="#2E42A5" fill-rule="evenodd" d="M3 2V26H39V2H3Z" clip-rule="evenodd"/><mask id="mask1_91_24830" width="36" height="24" x="3" y="2" maskUnits="userSpaceOnUse" style="mask-type:alpha"><path id="background_2" fill="white" fill-rule="evenodd" d="M3 2V26H39V2H3Z" clip-rule="evenodd"/></mask><g mask="url(#mask1_91_24830)"><g id="masked"><path id="Path 2" fill="#FECA00" fill-rule="evenodd" stroke="#F7FCFF" stroke-width="0.5" d="M26.6772 12.0327C26.6772 12.0327 27.6741 23.964 32.1695 23.964C36.6649 23.964 37.7705 12.0327 37.7705 12.0327H26.6772Z" clip-rule="evenodd"/><g id="mark"><path id="Combined Shape" fill="#CF6900" fill-rule="evenodd" d="M32.1501 12.6218L32.3148 12.4566L33.0955 12.8986C33.2085 12.7424 33.4099 12.6697 33.6918 12.6816L33.4071 12.2962L33.639 12.1864L34.1794 12.7647C34.1971 12.7695 34.2149 12.7744 34.2329 12.7796L34.0959 12.0281L34.3676 12L34.5451 12.9739C34.5495 12.9737 34.5538 12.9736 34.558 12.9736C34.6345 12.9736 34.7207 13.0064 34.8094 13.0585L35.0023 12L35.274 12.0281L35.1371 12.7796C35.155 12.7745 35.1728 12.7695 35.1905 12.7647L35.7309 12.1864L35.9628 12.2962L35.6781 12.6816C35.96 12.6697 36.1614 12.7424 36.2744 12.8986L37.0551 12.4566L37.2198 12.6218L36.3633 13.1069C36.375 13.1617 36.3809 13.2218 36.3809 13.2871V13.3996L37.563 13.1693L37.6502 13.3647L36.3809 13.7645V13.901L37.5843 13.8143L37.6205 14.0191L36.3809 14.1794V14.4152L37.6235 14.5977L37.5735 14.801L36.3809 14.6425V16.9406H36.198V14.6182L35.398 14.5119C35.3083 15.0742 35.2073 15.7822 35.2214 16.0382C35.2354 16.2911 35.4478 16.3994 35.597 16.4755C35.7129 16.5347 35.7906 16.5743 35.7068 16.6473C35.5154 16.8139 35.0368 16.9736 34.558 16.9736C34.0793 16.9736 33.6071 16.8139 33.5048 16.6473C33.4865 16.6175 33.4889 16.6199 33.5053 16.6366C33.5808 16.7136 33.9543 17.0944 33.9835 16.0382C33.9995 15.4586 33.9038 14.9354 33.7938 14.5356L33.1719 14.6182V16.9406H32.9891V14.6425L31.7964 14.801L31.7464 14.5977L32.9891 14.4152V14.1795L31.7494 14.0191L31.7856 13.8143L32.9891 13.901V13.7645L31.7197 13.3647L31.8069 13.1693L32.9891 13.3996V13.2871C32.9891 13.2218 32.995 13.1617 33.0067 13.1069L32.1501 12.6218ZM33.7147 14.2733C33.7183 14.2844 33.722 14.2957 33.7257 14.3071L33.1719 14.3884V14.2031L33.7147 14.2733ZM33.7262 13.5143C33.7178 13.5225 33.7097 13.5305 33.7017 13.5384L33.1719 13.4352V13.2871C33.1719 13.2575 33.1732 13.2294 33.1758 13.2027L33.7262 13.5143ZM34.0783 13.2048C34.0168 13.2519 33.9562 13.3026 33.8987 13.3535L33.2445 12.983C33.3363 12.8412 33.5173 12.7896 33.799 12.8267L34.0783 13.2048ZM35.2813 13.461L36.1254 12.983C36.0336 12.8412 35.8526 12.7896 35.571 12.8267L35.1793 13.3568C35.2151 13.3919 35.2493 13.427 35.2813 13.461ZM35.5661 13.5583L36.1942 13.2026C36.1967 13.2294 36.198 13.2575 36.198 13.2871V13.4352L35.5661 13.5583ZM35.8191 13.9414L36.198 13.8221V13.9141L35.8191 13.9414ZM35.5272 14.2899L36.198 14.2031V14.3884L35.5272 14.2899ZM33.1719 13.8221V13.9141L33.5508 13.9414L33.1719 13.8221Z" clip-rule="evenodd"/><path id="Path 340" fill="#00A727" fill-rule="evenodd" d="M30.9877 17.8428C30.9877 17.8428 29.5098 20.0429 29.5098 21.3764C29.5098 21.3764 30.5168 22.0864 32.249 22.0864C33.9811 22.0864 34.8724 21.3764 34.8724 21.3764C34.3847 19.7956 33.5546 17.8428 33.5546 17.8428H30.9877Z" clip-rule="evenodd"/><path id="Rectangle 86" fill="#E31D1C" fill-rule="evenodd" d="M31.0596 17.3723C31.0596 16.6907 31.6121 16.1382 32.2937 16.1382V16.1382C32.9753 16.1382 33.5279 16.6907 33.5279 17.3723V17.9857H31.0596V17.3723Z" clip-rule="evenodd"/><path id="Path 343" fill="#FF927F" fill-rule="evenodd" d="M27.209 14.8336C27.209 14.8336 29.1596 15.1908 29.1596 15.754C29.1596 16.3173 29.945 16.5204 30.138 16.3681C30.3309 16.2158 31.6902 16.1093 31.6902 15.3752C31.6902 14.641 31.8036 14.4411 31.4735 13.9749C31.1433 13.5087 30.4549 11.9328 30.2964 12.5642C30.138 13.1956 29.8995 13.6633 29.459 13.287C29.0185 12.9106 28.4526 12.1138 28.2541 12.5642C28.0555 13.0146 28.8835 13.4667 28.2541 13.4667C27.6246 13.4667 28.0683 13.4962 28.0683 13.8776C28.0683 14.259 28.1429 14.6184 27.6759 14.6184C27.209 14.6184 27.209 14.8336 27.209 14.8336Z" clip-rule="evenodd"/></g></g><g id="gb - large"><g id="flag_2"><rect id="mask_2" width="20.25" height="14" x="3" y="2" fill="#2B409A"/><mask id="mask2_91_24830" width="21" height="14" x="3" y="2" maskUnits="userSpaceOnUse" style="mask-type:alpha"><rect id="mask_3" width="20.25" height="14" x="3" y="2" fill="white"/></mask><g mask="url(#mask2_91_24830)"><g id="contents_2"><g id="stripe"><path id="white" fill="#F7FCFF" d="M0.745117 14.9996L5.20119 16.7368L23.351 3.88854L25.7015 1.30701L20.9364 0.726383L13.5335 6.26307L7.57493 9.99351L0.745117 14.9996Z"/><path id="red" fill="#F50100" d="M1.35498 16.217L3.62514 17.2251L24.8573 1.06738H21.6697L1.35498 16.217Z"/></g><g id="stripe_2"><path id="white_2" fill="#F7FCFF" d="M25.5049 14.9996L21.0488 16.7368L2.89897 3.88854L0.548492 1.30701L5.31362 0.726383L12.7165 6.26307L18.6751 9.99351L25.5049 14.9996Z"/><path id="red_2" fill="#F50100" d="M25.353 15.8732L23.0829 16.8813L14.042 9.96339L11.3616 9.19046L0.322518 1.31593H3.51009L14.5429 9.00356L17.4735 9.93038L25.353 15.8732Z"/></g><g id="cross"><g id="red_3"><mask id="path-16-outside-1_91_24830" width="24" height="18" x="1" y="0" fill="black" maskUnits="userSpaceOnUse"><rect width="24" height="18" x="1" fill="white"/><path fill-rule="evenodd" d="M14.2326 2H11.9826V8H3V10H11.9826V16H14.2326V10H23.25V8H14.2326V2Z" clip-rule="evenodd"/></mask><path fill="#F50100" fill-rule="evenodd" d="M14.2326 2H11.9826V8H3V10H11.9826V16H14.2326V10H23.25V8H14.2326V2Z" clip-rule="evenodd"/><path fill="#F7FCFF" d="M11.9826 2V0.5H10.4826V2H11.9826ZM14.2326 2H15.7326V0.5H14.2326V2ZM11.9826 8V9.5H13.4826V8H11.9826ZM3 8V6.5H1.5V8H3ZM3 10H1.5V11.5H3V10ZM11.9826 10H13.4826V8.5H11.9826V10ZM11.9826 16H10.4826V17.5H11.9826V16ZM14.2326 16V17.5H15.7326V16H14.2326ZM14.2326 10V8.5H12.7326V10H14.2326ZM23.25 10V11.5H24.75V10H23.25ZM23.25 8H24.75V6.5H23.25V8ZM14.2326 8H12.7326V9.5H14.2326V8ZM11.9826 3.5H14.2326V0.5H11.9826V3.5ZM13.4826 8V2H10.4826V8H13.4826ZM3 9.5H11.9826V6.5H3V9.5ZM4.5 10V8H1.5V10H4.5ZM11.9826 8.5H3V11.5H11.9826V8.5ZM13.4826 16V10H10.4826V16H13.4826ZM14.2326 14.5H11.9826V17.5H14.2326V14.5ZM12.7326 10V16H15.7326V10H12.7326ZM23.25 8.5H14.2326V11.5H23.25V8.5ZM21.75 8V10H24.75V8H21.75ZM14.2326 9.5H23.25V6.5H14.2326V9.5ZM12.7326 2V8H15.7326V2H12.7326Z" mask="url(#path-16-outside-1_91_24830)"/></g></g></g></g></g></g></g></g></g></g></g></g><defs><filter id="filter0_dd_91_24830" width="42" height="30" x="0" y="0" color-interpolation-filters="sRGB" filterUnits="userSpaceOnUse"><feFlood flood-opacity="0" result="BackgroundImageFix"/><feColorMatrix in="SourceAlpha" result="hardAlpha" values="0 0 0 0 0 0 0 0 0 0 0 0 0 0 0 0 0 0 127 0"/><feOffset dy="1"/><feGaussianBlur stdDeviation="1"/><feColorMatrix values="0 0 0 0 0.0627451 0 0 0 0 0.0941176 0 0 0 0 0.156863 0 0 0 0.06 0"/><feBlend in2="BackgroundImageFix" result="effect1_dropShadow_91_24830"/><feColorMatrix in="SourceAlpha" result="hardAlpha" values="0 0 0 0 0 0 0 0 0 0 0 0 0 0 0 0 0 0 127 0"/><feOffset dy="1"/><feGaussianBlur stdDeviation="1.5"/><feColorMatrix values="0 0 0 0 0.0627451 0 0 0 0 0.0941176 0 0 0 0 0.156863 0 0 0 0.1 0"/><feBlend in2="effect1_dropShadow_91_24830" result="effect2_dropShadow_91_24830"/><feBlend in="SourceGraphic" in2="effect2_dropShadow_91_24830" result="shape"/></filter><clipPath id="clip0_91_24830"><rect width="36" height="24" x="3" y="2" fill="white" rx="2"/></clipPath></defs></svg>

<svg xmlns="http://www.w3.org/2000/svg" fill="none" aria-hidden="true" viewBox="0 0 42 30"><g filter="url(#a)"><g clip-path="url(#b)"><mask id="c" width="36" height="24" x="3" y="2" maskUnits="userSpaceOnUse" style="mask-type:alpha"><path fill="#fff" d="M3 2h36v24H3z"/></mask><g mask="url(#c)"><path fill="#2E42A5" fill-rule="evenodd" d="M3 2v24h36V2H3Z" clip-rule="evenodd"/><mask id="d" width="36" height="24" x="3" y="2" maskUnits="userSpaceOnUse" style="mask-type:alpha"><path fill="#fff" fill-rule="evenodd" d="M3 2v24h36V2H3Z" clip-rule="evenodd"/></mask><g mask="url(#d)"><g fill-rule="evenodd" clip-rule="evenodd"><path fill="#FECA00" stroke="#F7FCFF" stroke-width=".5" d="M26.677 12.033s.997 11.931 5.492 11.931c4.496 0 5.602-11.931 5.602-11.931H26.676Z"/><path fill="#CF6900" d="m32.15 12.622.165-.165.78.442c.114-.157.315-.23.597-.217l-.285-.386.232-.11.54.579.054.015-.137-.752.272-.028.177.974h.013c.077 0 .163.032.251.085L35.002 12l.272.028-.137.752.053-.015.54-.579.233.11-.285.386c.282-.012.483.06.596.217l.781-.442.165.165-.857.485a.864.864 0 0 1 .018.18v.113l1.182-.23.087.195-1.27.4v.136l1.204-.087.036.205-1.24.16v.236l1.243.183-.05.203-1.192-.159v2.299h-.183v-2.323l-.8-.106c-.09.562-.19 1.27-.177 1.526.014.253.227.361.376.438.116.059.194.098.11.171-.192.167-.67.327-1.149.327s-.95-.16-1.053-.327c-.019-.03-.016-.027 0-.01.076.077.45.457.478-.599a5.177 5.177 0 0 0-.19-1.502l-.621.082v2.323h-.183v-2.298l-1.193.158-.05-.203 1.243-.183v-.235l-1.24-.16.037-.206 1.203.087v-.136l-1.27-.4.088-.196 1.182.23v-.112c0-.065.006-.125.018-.18l-.857-.485Zm1.565 1.651.01.034-.553.081v-.185l.543.07Zm.011-.759-.024.024-.53-.103v-.148a.74.74 0 0 1 .004-.084l.55.311Zm.352-.31a3.31 3.31 0 0 0-.18.15l-.654-.371c.092-.142.273-.193.555-.156l.28.378Zm1.203.257.844-.478c-.091-.142-.272-.193-.554-.156l-.392.53c.036.035.07.07.102.104Zm.285.097.628-.355a.91.91 0 0 1 .004.084v.148l-.632.123Zm.253.383.379-.119v.092l-.379.027Zm-.292.349.671-.087v.185l-.67-.098Zm-2.355-.468v.092l.379.027-.38-.119Z"/><path fill="#00A727" d="M30.988 17.843s-1.478 2.2-1.478 3.533c0 0 1.007.71 2.739.71s2.623-.71 2.623-.71c-.487-1.58-1.317-3.533-1.317-3.533h-2.567Z"/><path fill="#E31D1C" d="M31.06 17.372a1.234 1.234 0 0 1 2.468 0v.614H31.06v-.614Z"/><path fill="#FF927F" d="M27.209 14.834s1.95.357 1.95.92c0 .563.786.766.979.614.193-.152 1.552-.259 1.552-.993s.114-.934-.216-1.4c-.33-.466-1.02-2.042-1.178-1.41-.158.63-.396 1.098-.837.722-.44-.376-1.006-1.173-1.205-.723-.199.45.63.903 0 .903s-.186.03-.186.41c0 .382.075.741-.392.741s-.467.216-.467.216Z"/></g><path fill="#2B409A" d="M3 2h20.25v14H3z"/><mask id="e" width="21" height="14" x="3" y="2" maskUnits="userSpaceOnUse" style="mask-type:alpha"><path fill="#fff" d="M3 2h20.25v14H3z"/></mask><g mask="url(#e)"><path fill="#F7FCFF" d="m.745 15 4.456 1.737 18.15-12.848 2.35-2.582-4.765-.58-7.402 5.536-5.96 3.73L.746 15Z"/><path fill="#F50100" d="m1.355 16.217 2.27 1.008L24.857 1.067H21.67L1.355 16.217Z"/><path fill="#F7FCFF" d="m25.505 15-4.456 1.737L2.899 3.889.549 1.307l4.765-.58 7.402 5.536 5.96 3.73L25.504 15Z"/><path fill="#F50100" d="m25.353 15.873-2.27 1.008-9.041-6.918-2.68-.773L.322 1.316H3.51l11.033 7.688 2.93.926 7.88 5.943Z"/><mask id="f" width="24" height="18" x="1" y="0" fill="#000" maskUnits="userSpaceOnUse"><path fill="#fff" d="M1 0h24v18H1z"/><path fill-rule="evenodd" d="M14.233 2h-2.25v6H3v2h8.983v6h2.25v-6h9.017V8h-9.017V2Z" clip-rule="evenodd"/></mask><path fill="#F50100" fill-rule="evenodd" d="M14.233 2h-2.25v6H3v2h8.983v6h2.25v-6h9.017V8h-9.017V2Z" clip-rule="evenodd"/><path fill="#F7FCFF" d="M11.983 2V.5h-1.5V2h1.5Zm2.25 0h1.5V.5h-1.5V2Zm-2.25 6v1.5h1.5V8h-1.5ZM3 8V6.5H1.5V8H3Zm0 2H1.5v1.5H3V10Zm8.983 0h1.5V8.5h-1.5V10Zm0 6h-1.5v1.5h1.5V16Zm2.25 0v1.5h1.5V16h-1.5Zm0-6V8.5h-1.5V10h1.5Zm9.017 0v1.5h1.5V10h-1.5Zm0-2h1.5V6.5h-1.5V8Zm-9.017 0h-1.5v1.5h1.5V8Zm-2.25-4.5h2.25v-3h-2.25v3Zm1.5 4.5V2h-3v6h3ZM3 9.5h8.983v-3H3v3Zm1.5.5V8h-3v2h3Zm7.483-1.5H3v3h8.983v-3Zm1.5 7.5v-6h-3v6h3Zm.75-1.5h-2.25v3h2.25v-3Zm-1.5-4.5v6h3v-6h-3ZM23.25 8.5h-9.017v3h9.017v-3Zm-1.5-.5v2h3V8h-3Zm-7.517 1.5h9.017v-3h-9.017v3Zm-1.5-7.5v6h3V2h-3Z" mask="url(#f)"/></g></g></g></g></g><defs><clipPath id="b"><rect width="36" height="24" x="3" y="2" fill="#fff" rx="2"/></clipPath><filter id="a" width="42" height="30" x="0" y="0" color-interpolation-filters="sRGB" filterUnits="userSpaceOnUse"><feFlood flood-opacity="0" result="BackgroundImageFix"/><feColorMatrix in="SourceAlpha" result="hardAlpha" values="0 0 0 0 0 0 0 0 0 0 0 0 0 0 0 0 0 0 127 0"/><feOffset dy="1"/><feGaussianBlur stdDeviation="1"/><feColorMatrix values="0 0 0 0 0.0627451 0 0 0 0 0.0941176 0 0 0 0 0.156863 0 0 0 0.06 0"/><feBlend in2="BackgroundImageFix" result="effect1_dropShadow_91_24830"/><feColorMatrix in="SourceAlpha" result="hardAlpha" values="0 0 0 0 0 0 0 0 0 0 0 0 0 0 0 0 0 0 127 0"/><feOffset dy="1"/><feGaussianBlur stdDeviation="1.5"/><feColorMatrix values="0 0 0 0 0.0627451 0 0 0 0 0.0941176 0 0 0 0 0.156863 0 0 0 0.1 0"/><feBlend in2="effect1_dropShadow_91_24830" result="effect2_dropShadow_91_24830"/><feBlend in="SourceGraphic" in2="effect2_dropShadow_91_24830" result="shape"/></filter></defs></svg>
